X:8197
T:Yorkshire Hornpipe
O:england
M:2/2
L:1/8
S:Armitt MS
N:No time signature given.  Generally hard to read - several notes have
N:stems missing
K:D major
A2 AB AFDF|A2F2dB AFED|GBGE FAFD|E2EEE2|A2G2|FDFAd2f2|edcB A2d2|cecA BdB
G|A2AAA2:||:c2d2|e" unclear if E or F"ffe2cAc|ec af ecBA|dfdB cecA|B2BB
B2Ac|dcBA FED|GABc d2c2B2|A2GFE2G2F2E2D2DDD4|


